X: 18146
T: Humours Of Clarina, The
R: reel
M: 4/4
K: Amajor
|:Afec B2AF|AcBA FAAF|EFAB c2ec|BAFA B2cB|
Afec B2AF|AcBA FAAF|ECEF ABce|EFAB A2AB:|
|:ABce faab|afec BAA2|ABce f2af|efab a2ab|
c'baf e2fe|ceAc BAA2|EFAB cee2|1 EFAB A3B:|2 EFAB A4||

